X:1     %Music
T:Liverpool
T:While Shepherds Watched 
B:A Festival of Village Carols - Sixteen Carols from the Mount-Dawson Manuscripts, Worrall
C: Arr. Ian Russell, http://www.sgpublishing.co.uk/gm/vc/vcabout.html
Z:Ian Russell
Q:1/4=122     
V: 1 clef=treble name="Soprano"
M:4/4     %Meter
L:1/8     %
K:A
HA4 c2 A2 |F2 F2 G2 G2 |A6 A2 |B4 c4 |
w:While shep-herds watched their flocks by night. All seat-ed 
(B2A2) (G2F2) |HE6 E2 |(A2E2) (F2=G2) |F4 z2 F2 |
w:on_ the_ ground. The an--gel_ of the 
(B2F2) (G2A2) |G4 z2 B2 |c2 (Bc) d2 B2 |c4 z2 B2 |
w:Lord_ came_ down And glo-ry_ shone a-round, And 
c2 (Bc) d2 B2 |c4 z2 B2 |A4 A4 |B4 c4 |
w:glo-ry_ shone a-round, And glo-ry shone a-
HG6 G2 |c4 d4 |B6 B2 |A6 z2 |]
w:round. And glo-ry shone a-round. 
V:2 clef=treble name="Alto"
M:4/4     %Meter
L:1/8     %
K:A
HC4 C2 C2 |A,2 A,2 E2 E2 |E6 E2 |E4 E4 |
w:While shep-herds watched their flocks by night, All seat-ed 
B,4 B,4 |HB,6 C2 |C4 C4 |D4 z2 C2 |
w:on the ground, The an-gel of the 
D4 D4 |B,4 z2 B,2 |E2 E2 E2 E2 |E4 z2 E2 |
w:Lord came down And glo-ry shone a-round, And 
E2 E2 E2 E2 |E4 z2 E2 |E4 C4 |E4 E4 |
w:glo-ry shone a-round, And glo-ry shone a-
HE6 E2 |E4 F4 |E6 D2 |C6 z2 |]
w:round. And glo-ry shone a-round. 
V:3 clef=bass name="Tenor"
M:4/4     %Meter
L:1/8     %
K:A
HA,4 A,2 C2 |D2 D2 B,2 B,2 |C6 A,2 |G,4 A,4 |
w:While shep-herds watched their flocks by night, All seat-ed 
(G,2F,2) (E,2^D,2) |HE,6 z2 |z4 z2 E,2 |F,4 F,4 |
w:on_ the_ ground. The an-gel 
F,4 z2 F,2 |G,4 G,4 |A,4 z2 E2 |C2 (B,C) D2 B,2 |
w:of the Lord came down And glo-ry_ shone a-
C4 z2 E2 |C2 (B,C) D2 B,2 |C2 C2 A,2 A,2 |G,4 A,4 |
w:round, And glo-ry_ shone a-round, And glo-ry shone a-
HG,6 G,2 |A,4 A,4 |G,6 G,2 |A,6 z2 |]
w:round, And glo-ry shone a-round. 
V:4 clef=bass name="Bass"
M:4/4     %Meter
L:1/8     %
K:A
HA,,4 A,2 A,2 |D,2 D,2 E,2 E,2 |A,,6 A,,2 |E,4 A,,4 |
w:While shep-herds watched their flocks by night, All seat-ed 
B,,4 B,,4 |HE,,6 z2 |z4 z2 A,,2 |(D,2A,,2) (D,2C,2) |
w:on the ground, The an--gel_ 
B,,4 z2 B,,2 |(E,2B,,2) (E,2D,2) |C,4 z2 E,2 |A,2 (G,A,) B,2 E,2 |
w:of the Lord_ came_ down And glo-ry_ shone a-
A,4 z2 E,2 |A,2 (G,A,) B,2 E,2 |A,2 E,2 C,2 A,,2 |E,4 A,4 |
w:round, And glo-ry_ shone a-round, And glo-ry shone a-
HE,6 E,2 |(A,2G,2) (F,2B,,2|E,6[E,2E,,2]|A,,6z2|]
w:round, And glo--ry_ shone a-round. 
     %End of file